symbols/web/subtitles/materialsymbolsoutlined/subtitles_wght100grad200_40px.svg

<svg xmlns="http://www.w3.org/2000/svg" height="40" width="40"><path d="M10.75 19.708h1.708V18H10.75Zm0 5.584h14.167v-1.709H10.75Zm16.792 0h1.708v-1.709h-1.708Zm-12.459-5.584H29.25V18H15.083Zm-7.25 12.125q-1.291 0-2.166-.895-.875-.896-.875-2.146V11.208q0-1.25.875-2.145.875-.896 2.166-.896h24.334q1.291 0 2.166.896.875.895.875 2.145v17.584q0 1.25-.875 2.146-.875.895-2.166.895ZM6.5 30.125V9.875 30.125Zm1.333 0h24.334q.5 0 .916-.417.417-.416.417-.916V11.208q0-.5-.417-.916-.416-.417-.916-.417H7.833q-.5 0-.916.417-.417.416-.417.916v17.584q0 .5.417.916.416.417.916.417Z"/></svg>

<svg xmlns="http://www.w3.org/2000/svg" height="40" width="40"><path d="M10.75 19.708H12.458V18H10.75ZM10.75 25.292H24.917V23.583H10.75ZM27.542 25.292H29.25V23.583H27.542ZM15.083 19.708H29.25V18H15.083ZM7.833 31.833Q6.542 31.833 5.667 30.938Q4.792 30.042 4.792 28.792V11.208Q4.792 9.958 5.667 9.063Q6.542 8.167 7.833 8.167H32.167Q33.458 8.167 34.333 9.063Q35.208 9.958 35.208 11.208V28.792Q35.208 30.042 34.333 30.938Q33.458 31.833 32.167 31.833ZM7.833 30.125Q7.25 30.125 6.875 29.75Q6.5 29.375 6.5 28.792V11.208Q6.5 10.625 6.875 10.25Q7.25 9.875 7.833 9.875Q7.25 9.875 6.875 10.25Q6.5 10.625 6.5 11.208V28.792Q6.5 29.375 6.875 29.75Q7.25 30.125 7.833 30.125ZM7.833 30.125H32.167Q32.667 30.125 33.083 29.708Q33.5 29.292 33.5 28.792V11.208Q33.5 10.708 33.083 10.292Q32.667 9.875 32.167 9.875H7.833Q7.333 9.875 6.917 10.292Q6.5 10.708 6.5 11.208V28.792Q6.5 29.292 6.917 29.708Q7.333 30.125 7.833 30.125Z"/></svg>
